X:4
T:Polska 
R:Polska
C:Helge Vilhelm Svensson
O:Hogstad, Östergötland
M:3/4
B: Ög 4
N:Smus Ög 4 bild 47
L:1/8
K:D
A2 F>A dPc|B2 G>B e>d |((3cdc) AA a>f|d2 f>d A2| 
A2 F>A dPc|B2 G>B e>d |((3cdc) AA a>f|d2 d2 z2 :|:
a>g f>g a>(a |d')>a f3 f | g>f e>f g>(a | b)>a e3 f | Pg2 ef g>g | Pf2 A>d f>f |e>c A>c e>f |1 d>e f>g a2 :|2 d4 z2 ||

